X: 6132
T: Captain Lachlan MacPhail Of Tiree
R: reel
M: 4/4
K: Amajor
|:e2|AAAc e2 e2|faae feec|AAAc e2 ef|ecBA BBBc|
AAAc e2 e2|faae feec|AAAB cefc|BAAB A2:|
|:e2|a2 ea fecA|cAAc ceef|a2 ea fecA|Afec BBBe|
a2 ea fecA|cAAc ceef|AAAB cefc|BAAB A2:|
|:a2|cccB AAAc|e2 ef aefe|cccB AAAf|ecBA BBBa|
cccB AAAc|e2 ef aefe|AAAB cefc|BAAB A2:|
|:e2|a2 ae feef|cAce faae|a2 ae feef|ecBA BBBe|
a2 ae feef|cAce faac|AAAB cefc|BAAB A2:|

